X:1
T:Reel Patience
M:C
L:1/8
Q:220
C:(c) Greg Anderson, 15 Jan 2000
R:Reel
N:A tune dedicated to Mme Christine Vignau, our VERY patient and
N:wonderful piano teacher
N:at the Ecole municipale de la musique in Talence , France. Salut!
K:D
FA|A2 FG AG FG|f6 fe|(3ded cd ed cB|G6 EF|
G2 EF GF E2|e6 d2|cc Bc dc BA|F6 FG|A2 FG AG FG|
f6 (3efe|d2 cd ed cd|B6 Bc|(3ded cd ed cB|
AA df a2 aa|ba gf eA Bc|df ec d2 dc|:BG GG EF GA|
FG AF DF AF|GE CE A,E GE|FD EG Af dA| BG GG EG GB|
AF FF DF FA|GF GE CE A,C|1DF EC D2 GA:|2DF EC D2||
